X:1
T:Glebe Field, 77.77
T:Glebe Field, 77.77
T:John Bacchus Dykes, 1874
T:Public Domain Courtesy of the Cyber Hymnal™
C:John Bacchus Dykes, 1874
Z:Public Domain
Z:Courtesy of the Cyber Hymnal™
%%score ( 1 2 ) ( 3 4 )
L:1/8
Q:1/4=115
M:4/4
K:F
V:1 treble 
V:2 treble 
V:3 bass 
V:4 bass 
V:1
 F3 F F2 (GA) x/ | [FB]2 [EB]2 [FA]4 | [Fc]3 [FA] [FB]2 [Fc]2 | [Fd]2 [FG]2 [EG]4 | %4
 [Ec]3 [_Ec] [Dc]2 [DA]2 | [DB]2 (GA) [GB]4 | [FA]3 [FB] [Fc]2 [Fd]2 | [FA]2 [EG]2 F4 |] %8
V:2
 F3 F3/2 F2 F2 | x8 | x8 | x8 | x8 | x2 G2 x4 | x8 | x4 F4 |] %8
V:3
 [F,A,]3 [B,D] [A,C]2 [A,C]2 x/ | [G,D]2 [G,C]2 [F,C]4 | [F,A,]3 [E,C] [D,B,]2 [C,A,]2 | %3
 [B,,G,]2 [=B,,D]2 [C,C]4 | [A,C]3 [G,B,] [^F,A,]2 [F,C]2 | [G,B,]2 [F,D]2 [E,C]4 | %6
 C3 [D,B,] (B,A,) (G,F,) | [C,C]2 [C,B,]2 [F,A,]4 |] %8
V:4
 x17/2 | x8 | x8 | x8 | x8 | x8 | (F,2 E,) C,2 B,,2 x | x8 |] %8

